raycast/extensions/amzn-raycast-extension/assets/two.svg

<svg width="16" height="16" viewBox="0 0 16 16" fill="none" xmlns="http://www.w3.org/2000/svg">
<rect x="1.5" y="1.5" width="13" height="13" rx="3.5" stroke="white"/>
<path fill-rule="evenodd" clip-rule="evenodd" d="M7.99406 3.75L7.99491 3.75C9.39693 3.75 10.55 4.88137 10.55 6.3C10.55 6.4584 10.5086 6.60466 10.4707 6.71191C10.4298 6.82768 10.3752 6.94697 10.3151 7.06387C10.1948 7.29781 10.0306 7.56438 9.84528 7.84229C9.47333 8.40022 8.98361 9.05255 8.50204 9.6679C8.13366 10.1386 7.76579 10.5931 7.45182 10.975H9.91251C10.2646 10.975 10.55 11.2604 10.55 11.6125C10.55 11.9646 10.2646 12.25 9.91251 12.25H6.08751C5.83854 12.25 5.61236 12.1051 5.50833 11.8789C5.4043 11.6527 5.44146 11.3866 5.60348 11.1976L5.61382 11.1855L5.64514 11.1488C5.6727 11.1165 5.7133 11.0687 5.76508 11.0075C5.86865 10.885 6.01686 10.7088 6.1948 10.4946C6.55101 10.0658 7.02494 9.48654 7.49797 8.8821C7.97265 8.27557 8.43918 7.6529 8.78442 7.13505C8.95774 6.87507 9.09236 6.65356 9.18123 6.48076C9.2257 6.39429 9.25322 6.33055 9.26839 6.28756C9.27108 6.27996 9.27311 6.27374 9.27463 6.26882C9.25803 5.57711 8.6907 5.02523 7.99534 5.025C7.82838 5.02528 7.66311 5.05841 7.50894 5.12251C7.35464 5.18666 7.2145 5.28058 7.0965 5.39889C6.9785 5.51721 6.88496 5.65761 6.82121 5.81207C6.75747 5.96654 6.72478 6.13205 6.72501 6.29915C6.72548 6.65123 6.44044 6.93703 6.08836 6.9375C5.73628 6.93797 5.45048 6.65293 5.45001 6.30085C5.44956 5.96632 5.51501 5.63497 5.64262 5.32573C5.77023 5.01648 5.95749 4.7354 6.19373 4.49854C6.42997 4.26167 6.71055 4.07365 7.01945 3.94522C7.32835 3.81678 7.65952 3.75045 7.99406 3.75Z" fill="white"/>
</svg>

<svg width="16" height="16" fill="none" xmlns="http://www.w3.org/2000/svg"><rect x="1.5" y="1.5" width="13" height="13" rx="3.5" stroke="#fff"/><path fill-rule="evenodd" clip-rule="evenodd" d="M7.994 3.75A2.552 2.552 0 0110.55 6.3c0 .158-.041.305-.08.412-.04.116-.095.235-.155.352-.12.234-.284.5-.47.778-.372.558-.861 1.21-1.343 1.826-.368.47-.736.925-1.05 1.307h2.46a.637.637 0 110 1.275H6.089a.637.637 0 01-.485-1.052l.01-.013.032-.036a47.131 47.131 0 00.55-.654c.356-.43.83-1.008 1.303-1.613a30.31 30.31 0 001.286-1.747c.174-.26.308-.481.397-.654a1.641 1.641 0 00.094-.212 1.277 1.277 0 00-2.454-.457c-.064.155-.096.32-.096.487a.638.638 0 01-1.275.002A2.547 2.547 0 017.994 3.75z" fill="#fff"/></svg>
